X: 1
T: Angus Chisholm's Favourite
C: trad.
O: as played by Andrea Beaton
R: reel
S: Fiddle Hell Online 2021-11-3
Z: 2022 John Chambers <jc:trillian.mit.edu>
M: 4/4
L: 1/8
K: C
"^A"|: G2GE c2cG | E2EG FDDE | C2CE c2cd | egdg [1 edcA :|[2 eccG "^B":: c2ce gage |
| gage fdd [1 e | c2ce gage | abag edcA :|[2 b | afgf edcG | Abag edcA |]
